X:1
T:Title
%%score { ( 1 3 ) | ( 2 4 ) }
L:1/8
M:4/4
K:A
V:1 treble nm="Grand Piano"
V:3 treble 
V:2 bass 
V:4 bass 
V:1
 z4 z2[Q:1/4=100] [CE][B,D] | [A,C][CE][CA][DB] [Ec]2 [CE][CE] |[M:3/4] F2 FF F2 |[M:1/4] FF | %4
[M:4/4] B^ABc d2 [Fd][Fd] |[M:3/4] [Fd]2 [Ec][^D=c] [E^c]2 |[M:1/4] [CE][B,D] | %7
[M:4/4] [A,C][CE][CA][DB] [Ec]2 [CE][CE] |[M:3/4] F^E FB d2 |[M:1/4] [Fd][Fd] |[M:4/4] dBGE G2 BB | %11
[M:3/4] A2- [DA-][DA-] [CA]2 |[M:1/4] ee |[M:4/4] [Ge]2 [Fd]2 [Ec]2 [DB]2 | %14
 [CA]2 [Ec]2 [CE]2 [CE][CE] | [DF]2 [EF]2 [DF][Fd][Ec][DB] | A4 G2 EE | %17
 [CA][B,G][CA][DB] [Ec]2 [CE][CE] |[M:3/4] F^E FB d2 |[M:1/4] [Fd][Fd] |[M:4/4] dBGE G2 BB | %21
[M:7/4] A2- [DA-][DA-] [CA]2 z2 z2 z4 |] %22
V:2
 z4 z2 [A,,A,][A,,A,] | [A,,E,][A,,A,][A,,A,][A,,A,] [A,,A,]2 [A,,A,][A,,A,] | %2
[M:3/4] [D,A,D]2 [D,A,D][D,A,D] [D,A,D]2 |[M:1/4] [D,A,D][D,A,D] | %4
[M:4/4] [E,G,D][E,G,D][E,G,D][E,G,D] [E,G,D]2 [E,G,][E,G,] | %5
[M:3/4] [A,,A,]2 [A,,A,][A,,A,] [A,,A,]2 |[M:1/4] [A,,A,][A,,A,] | %7
[M:4/4] [A,,E,][A,,A,][A,,A,][A,,A,] [A,,A,]2 [A,,A,][A,,A,] | %8
[M:3/4] [D,A,D][D,A,D] [D,A,D][D,A,D] [D,F,D]2 |[M:1/4] [D,A,][D,A,] | %10
[M:4/4] [E,G,E][E,G,E][E,B,E][E,G,] [E,B,D]2 [E,G,D][E,G,D] |[M:3/4] z2 F,F, E,2 | %12
[M:1/4][K:treble] [A,CA][A,CA] |[M:4/4][K:bass] [E,B,]2 [E,B,]2 [E,G,]2 [E,G,]2 | %14
 [A,,A,]2 [A,,A,]2 [A,,A,]2 [A,,A,][A,,A,] | [D,A,]2 [C,^A,]2 [B,,B,][B,,B,][B,,B,][B,,B,] | %16
 [CE]4 [B,D]2 [E,G,D][E,G,D] | [A,,A,][A,,A,][A,,A,][A,,A,] [A,,A,]2 [A,,A,][A,,A,] | %18
[M:3/4] [D,A,D][D,A,D] [D,A,D][D,A,D] [D,F,D]2 |[M:1/4] [D,A,][D,A,] | %20
[M:4/4] [E,G,E][E,G,E][E,B,E][E,G,] [E,B,D]2 [E,G,D][E,G,D] |[M:7/4] z2 F,F, E,2 z2 z2 z4 |] %22
V:3
 x8 | x8 |[M:3/4] x6 |[M:1/4] x2 |[M:4/4] x8 |[M:3/4] x6 |[M:1/4] x2 |[M:4/4] x8 |[M:3/4] x6 | %9
[M:1/4] x2 |[M:4/4] x8 |[M:3/4] [A,C]2 z2 z2 |[M:1/4] x2 |[M:4/4] x8 | x8 | x8 | x8 | x8 | %18
[M:3/4] x6 |[M:1/4] x2 |[M:4/4] x8 |[M:7/4] [A,C]2 z2 z2 z2 z2 z4 |] %22
V:4
 x8 | x8 |[M:3/4] x6 |[M:1/4] x2 |[M:4/4] x8 |[M:3/4] x6 |[M:1/4] x2 |[M:4/4] x8 |[M:3/4] x6 | %9
[M:1/4] x2 |[M:4/4] x8 |[M:3/4] A,,6 |[M:1/4][K:treble] x2 |[M:4/4][K:bass] x8 | x8 | x8 | E,6 z2 | %17
 x8 |[M:3/4] x6 |[M:1/4] x2 |[M:4/4] x8 |[M:7/4] A,,6 z2 z2 z4 |] %22

